X:566
T:Taur polka
R:Polka
B:Pipers club(?)
S:pipers~1.abc
Z:Transcription:Denis Brooks?, minor arr., chords:Mike Long
M:2/4
L:1/16
K:D
B2|\
"D"A2D2 FGA2|"(A)"d2c2 A2B2|"C"=c3c c2G2|"(G)"D2F2 G2B2|\
"D"A2D2 FGA2|"(A)"d2c2 A2B2|"C"=c3c c2E2|"G"E2D2 D2:|
|:e2|\
"D"f2gf e2d2|"A"c2A2 A2d2|"D"f2d2 e2f2|"G"g4 a2g2|\
"D"f2gf e2d2|"A"c2A2 A2B2|"C"=c3c c2E2|"G"F2D2 D2:|
